X:13
T:13. Schuebkarren
K:Eb
M:3/4
L:1/8
|: ([EG,][FD])[GEB,][AF] [B2G2E2] | ([EG,][FD])[GEB,][AF] [B2G2E2] | \
M:4/4
L:1/4
([AFD][FDB,]) ([GE]E) | \
M:3/4
L:1/8
([EG,][FD])[GEB,][AF] [B2G2E2] | ([EG,][FD])[GEB,][AF] [B2G2E2] | \
M:4/4
L:1/4
([AFD][FDB,]) [EE] z :|
% End first line part A Schuebkarren
M:4/4
L:1/4
|: ([cAC2][c/A/][A/F/] [BGB,2])[B/G/][G/E/] | ([AFA,2][A/F/][F/D/] [GEG,2])[G/E]E/ | \
   ([cAC2][c/A/][A/F/] [BGB,2])[B/G/][G/E/] |1 ([AFA,2][A/F/][F/D/] [EG,] z :|2 \
([BDB,][dAF] [eGE] z ||
M:3/4
L:1/8
K:Ab
|([ACA,][BEB,])[cAC][dBD] [e2c2E2] | ([ACA,][BEB,])[cAC][dBD] [e2c2E2] | \
M:4/4
L:1/4
([dBB,][BGD]) ([cAA,][AC]) | \
M:3/4
L:1/8
|([ACA,][BEB,])[cAC][dBD] [e2c2E2] | ([ACA,][BEB,])[cAC][dBD] [e2c2E2] | \
M:4/4
L:1/4
([dBB,][BGD]) [AC] z :|
M:3/4
L:1/8
|: ([fdD2][f/d/][d/B/] [ecC2])[e/c/][c/A/] |  ([dBB,2][d/B/][B/G/] [cAA,])[c/A/][A/F/] | \
   ([fdD2][f/d/][d/B/] [ecC2])[e/c/][c/A/] |1 ([dBB,2][d/B/][B/G/] [AC] z :|2 [eGB,][GE] [ACA,] z |]
